src/images/boarding-pass/plane.svg

<svg xmlns="http://www.w3.org/2000/svg" width="26" height="26" viewBox="0 0 26 26">
  <path fill="#2B4361" d="M18.8117647,25.4901961 C18.7755686,25.4901961 18.7388627,25.4861176 18.7026667,25.4784706 C18.5359608,25.4422745 18.3978039,25.324 18.3361176,25.1649412 L14.6889804,15.7386667 L9.68627451,20.6072941 L9.68627451,23.4509804 C9.68627451,23.5972941 9.62356863,23.7364706 9.51396078,23.8333333 L7.78062745,25.3627451 C7.64705882,25.4805098 7.4614902,25.5212941 7.29172549,25.4667451 C7.12145098,25.4137255 6.99145098,25.2760784 6.94862745,25.1027451 L5.74803922,20.2524706 L0.897254902,19.0518824 C0.711686275,19.006 0.567411765,18.8596863 0.523568627,18.6736078 C0.47972549,18.4875294 0.543960784,18.2927843 0.689764706,18.168902 L2.72898039,16.4355686 C2.8207451,16.356549 2.938,16.3137255 3.05882353,16.3137255 L5.39423529,16.3137255 L10.2608235,11.3579216 L0.833529412,7.66286275 C0.674470588,7.60066667 0.557215686,7.4625098 0.521019608,7.29580392 C0.484823529,7.12909804 0.534784314,6.9552549 0.653568627,6.83290196 L2.38690196,5.04858824 C2.49956863,4.93235294 2.66219608,4.87729412 2.8207451,4.89870588 L15.0611373,6.54741176 L18.5023137,3.10623529 C19.1762745,2.38996078 22.438,0.0999215686 24.3563922,0.0999215686 C24.8289804,0.0999215686 25.2087843,0.234 25.4856078,0.498588235 C27.0512157,2.13403922 23.5983137,6.79364706 22.8937647,7.49768627 L19.4525882,10.9388627 L21.1012941,23.1787451 C21.1227059,23.3388235 21.0671373,23.4999216 20.9514118,23.6125882 L19.167098,25.3459216 C19.0707451,25.4392157 18.9432941,25.4901961 18.8117647,25.4901961 Z"/>
</svg>

<svg height="26" viewBox="0 0 26 26" width="26" xmlns="http://www.w3.org/2000/svg"><path d="m18.8117647 25.4901961c-.0361961 0-.072902-.0040785-.109098-.0117255-.1667059-.0361961-.3048628-.1544706-.3665491-.3135294l-3.6471372-9.4262745-5.00270589 4.8686274v2.8436863c0 .1463137-.06270588.2854902-.17231373.3823529l-1.73333333 1.5294118c-.13356863.1177647-.31913725.158549-.48890196.104-.17027451-.0530196-.30027451-.1906667-.34309804-.364l-1.20058823-4.8502745-4.85078432-1.2005882c-.18556862-.0458824-.32984313-.1921961-.37368627-.3782746-.04384314-.1860784.02039215-.3808235.16619608-.5047058l2.03921568-1.7333334c.09176471-.0790196.20901961-.1218431.32984314-.1218431h2.33541176l4.86658821-4.9558039-9.42729409-3.69505885c-.15905882-.06219608-.27631372-.20035295-.3125098-.36705883s.0137647-.34054902.13254902-.46290196l1.73333333-1.78431372c.11266667-.1162353.27529412-.17129412.43384314-.14988236l12.2403922 1.64870588 3.4411764-3.44117647c.6739608-.71627451 3.9356863-3.00631372 5.8540785-3.00631372.4725882 0 .8523921.13407843 1.1292156.39866667 1.5656079 1.63545098-1.8872941 6.29505882-2.5918431 6.99909803l-3.4411765 3.44117643 1.6487059 12.2398824c.0214118.1600784-.0341568.3211765-.1498823.4338431l-1.7843138 1.7333334c-.0963529.0932941-.2238039.1442745-.3553333.1442745z" fill="#2b4361"/></svg>
